polaris-icons/icons/newicons/SettingsMajor.svg

<svg width="20" height="20" viewBox="0 0 20 20" fill="none" xmlns="http://www.w3.org/2000/svg">
<path fill-rule="evenodd" clip-rule="evenodd" d="M13 10C13 11.6569 11.6569 13 10 13C8.34315 13 7 11.6569 7 10C7 8.34315 8.34315 7 10 7C11.6569 7 13 8.34315 13 10ZM11.5 10C11.5 10.8284 10.8284 11.5 10 11.5C9.17157 11.5 8.5 10.8284 8.5 10C8.5 9.17157 9.17157 8.5 10 8.5C10.8284 8.5 11.5 9.17157 11.5 10Z" fill="black"/>
<path fill-rule="evenodd" clip-rule="evenodd" d="M9.32618 2C8.35968 2 7.57618 2.7835 7.57618 3.75V4.49264C7.57618 4.58046 7.51381 4.72166 7.33105 4.81714C7.16661 4.90305 7.00688 4.99663 6.85232 5.09739C6.67806 5.21099 6.52269 5.19488 6.44586 5.15052L5.79812 4.77655C4.96111 4.2933 3.89083 4.58009 3.40758 5.4171L2.7345 6.5829C2.25125 7.41991 2.53803 8.4902 3.37505 8.97345L4.07427 9.37714C4.14976 9.42073 4.23961 9.54304 4.23312 9.74513C4.23111 9.80767 4.2301 9.87044 4.2301 9.93341C4.2301 10.0365 4.23281 10.1391 4.23817 10.241C4.24909 10.4484 4.1575 10.5748 4.0806 10.6192L3.37505 11.0266C2.53804 11.5098 2.25126 12.5801 2.73451 13.4171L3.40759 14.5829C3.89083 15.4199 4.96112 15.7067 5.79813 15.2234L6.55455 14.7867C6.62994 14.7432 6.781 14.7265 6.95325 14.8337C7.07614 14.9103 7.20215 14.9823 7.33105 15.0497C7.51381 15.1452 7.57618 15.2863 7.57618 15.3742V16.25C7.57618 17.2165 8.35969 18 9.32618 18H10.6723C11.6388 18 12.4223 17.2165 12.4223 16.25V15.3742C12.4223 15.2864 12.4847 15.1452 12.6675 15.0497C12.7964 14.9824 12.9224 14.9103 13.0453 14.8338C13.2176 14.7265 13.3686 14.7432 13.444 14.7868L14.2004 15.2234C15.0374 15.7067 16.1077 15.4199 16.5909 14.5829L17.264 13.4171C17.7472 12.5801 17.4605 11.5098 16.6234 11.0266L15.918 10.6193C15.8412 10.5749 15.7496 10.4485 15.7605 10.241C15.7658 10.1391 15.7686 10.0365 15.7686 9.93341C15.7686 9.87041 15.7675 9.80762 15.7655 9.74505C15.759 9.54295 15.8489 9.42063 15.9244 9.37705L16.6234 8.97345C17.4605 8.4902 17.7472 7.41991 17.264 6.5829L16.5909 5.4171C16.1077 4.58009 15.0374 4.2933 14.2004 4.77655L13.5527 5.15047C13.4759 5.19483 13.3205 5.21094 13.1463 5.09734C12.9917 4.99658 12.8319 4.90299 12.6675 4.81708C12.4847 4.7216 12.4223 4.5804 12.4223 4.49257V3.75C12.4223 2.7835 11.6388 2 10.6723 2H9.32618ZM9.07618 3.75C9.07618 3.61193 9.18811 3.5 9.32618 3.5H10.6723C10.8104 3.5 10.9223 3.61193 10.9223 3.75V4.49257C10.9223 5.25239 11.4044 5.84956 11.9729 6.14658C12.0945 6.2101 12.2127 6.27933 12.3271 6.35393C12.8706 6.70822 13.6375 6.83355 14.3027 6.44951L14.9504 6.07559C15.0699 6.00656 15.2228 6.04752 15.2919 6.1671L15.965 7.3329C16.034 7.45248 15.993 7.60537 15.8734 7.67441L15.1744 8.07801C14.5243 8.45332 14.2459 9.15799 14.2663 9.79325C14.2678 9.83976 14.2686 9.88648 14.2686 9.93341C14.2686 10.0102 14.2665 10.0865 14.2626 10.1622C14.2285 10.8093 14.5038 11.5348 15.168 11.9183L15.8734 12.3256C15.993 12.3946 16.034 12.5475 15.9649 12.6671L15.2919 13.8329C15.2228 13.9525 15.0699 13.9934 14.9504 13.9244L14.194 13.4877C13.5428 13.1118 12.7924 13.2243 12.2524 13.5605C12.1614 13.6171 12.0682 13.6704 11.9729 13.7202C11.4044 14.0173 10.9223 14.6144 10.9223 15.3742V16.25C10.9223 16.3881 10.8104 16.5 10.6723 16.5H9.32618C9.18811 16.5 9.07618 16.3881 9.07618 16.25V15.3742C9.07618 14.6144 8.59416 14.0172 8.02565 13.7202C7.93035 13.6704 7.83714 13.6171 7.74619 13.5605C7.20624 13.2242 6.45576 13.1117 5.80455 13.4877L5.04813 13.9244C4.92856 13.9934 4.77566 13.9525 4.70662 13.8329L4.03355 12.6671C3.96451 12.5475 4.00548 12.3946 4.12505 12.3256L4.8306 11.9182C5.49481 11.5348 5.77016 10.8093 5.7361 10.1621C5.73212 10.0865 5.7301 10.0102 5.7301 9.93341C5.7301 9.8865 5.73085 9.8398 5.73234 9.79332C5.75276 9.15806 5.47431 8.45341 4.82427 8.0781L4.12505 7.67441C4.00547 7.60537 3.9645 7.45247 4.03354 7.3329L4.70662 6.1671C4.77565 6.04753 4.92855 6.00656 5.04812 6.07559L5.69586 6.44956C6.36104 6.8336 7.12798 6.70827 7.67148 6.35396C7.7859 6.27937 7.90408 6.21014 8.02565 6.14663C8.59416 5.8496 9.07618 5.25244 9.07618 4.49264V3.75Z" fill="black"/>
</svg>

<svg viewBox="0 0 20 20" fill="none" xmlns="http://www.w3.org/2000/svg"><path fill-rule="evenodd" clip-rule="evenodd" d="M13 10a3 3 0 1 1-6 0 3 3 0 0 1 6 0Zm-1.5 0a1.5 1.5 0 1 1-3 0 1.5 1.5 0 0 1 3 0Z" fill="#000"/><path fill-rule="evenodd" clip-rule="evenodd" d="M9.326 2a1.75 1.75 0 0 0-1.75 1.75v.743c0 .087-.062.229-.245.324-.164.086-.324.18-.479.28-.174.114-.33.098-.406.054l-.648-.374a1.75 1.75 0 0 0-2.39.64l-.673 1.166a1.75 1.75 0 0 0 .64 2.39l.7.404c.075.044.165.166.158.368a5.861 5.861 0 0 0 .005.496c.011.207-.08.334-.157.378l-.706.408a1.75 1.75 0 0 0-.64 2.39l.673 1.166a1.75 1.75 0 0 0 2.39.64l.757-.436c.075-.044.226-.06.398.047.123.076.25.148.378.216.183.095.245.236.245.324v.876c0 .966.784 1.75 1.75 1.75h1.346a1.75 1.75 0 0 0 1.75-1.75v-.876c0-.088.063-.229.245-.324.13-.068.255-.14.378-.216.173-.107.324-.09.399-.047l.756.436a1.75 1.75 0 0 0 2.39-.64l.674-1.166a1.75 1.75 0 0 0-.64-2.39l-.706-.408c-.077-.044-.168-.17-.157-.378a5.923 5.923 0 0 0 .005-.496c-.007-.202.083-.324.158-.368l.7-.404a1.75 1.75 0 0 0 .64-2.39l-.673-1.166a1.75 1.75 0 0 0-2.39-.64l-.648.373c-.077.045-.233.06-.407-.053a5.778 5.778 0 0 0-.479-.28c-.182-.095-.245-.237-.245-.324v-.743a1.75 1.75 0 0 0-1.75-1.75h-1.346Zm-.25 1.75a.25.25 0 0 1 .25-.25h1.346a.25.25 0 0 1 .25.25v.743c0 .76.482 1.357 1.05 1.654.123.063.24.132.355.207.544.354 1.31.48 1.976.096l.647-.374a.25.25 0 0 1 .342.091l.673 1.166a.25.25 0 0 1-.092.341l-.699.404c-.65.375-.928 1.08-.908 1.715a4.348 4.348 0 0 1-.003.37c-.034.646.24 1.372.905 1.755l.705.408a.25.25 0 0 1 .092.341l-.673 1.166a.25.25 0 0 1-.342.091l-.756-.436c-.651-.376-1.402-.264-1.942.072a4.3 4.3 0 0 1-.28.16c-.568.297-1.05.894-1.05 1.654v.876a.25.25 0 0 1-.25.25h-1.346a.25.25 0 0 1-.25-.25v-.876c0-.76-.482-1.357-1.05-1.654a4.285 4.285 0 0 1-.28-.16c-.54-.336-1.29-.448-1.941-.072l-.757.436a.25.25 0 0 1-.341-.091l-.673-1.166a.25.25 0 0 1 .091-.341l.706-.408c.664-.383.94-1.109.905-1.756a4.351 4.351 0 0 1-.004-.369c.02-.635-.258-1.34-.908-1.715l-.699-.404a.25.25 0 0 1-.091-.341l.673-1.166a.25.25 0 0 1 .341-.091l.648.374c.665.384 1.432.258 1.975-.096.115-.075.233-.144.355-.207.568-.297 1.05-.895 1.05-1.654v-.743Z" fill="#000"/></svg>
